X: 1
T: Ki Tina'am  [Am]
O: Israel
Z: John Chambers <jc:trillian.mit.edu>
S: handwritten MS of unknown origin, labelled "M.I.T. I3" and "T.K."; note values twice as long as here
M: 4/4
L: 1/8
%Q: "slow"
P: C instr.
K: Am
V: 1
"^intro"\
| "Am"AB ce "D"d^f ed | "C"ec ce "D"d4 | "G"B2 cd "Em"BA AG | "F"A2 "G"BG "Am"A4 ||
"^vocal"\
[|"Am"A2 A2 "F"c3 d | "Am"cB AB "G"G4 | "Am"A2 A2 "Em"e2 g2 | "D"^fe ed "C"e2 ce |
| "D"d3 e "Dm"dA d2 | "Am"c3 d "Em"BA G2 | "Am"A2 c2 "G"BA AG | "F"A2 "G"(3BAG "Am"A4 |
| "Am"e>^f ed "Em"e4 | "Em"eg "D"^fd "Em"e4 | "Am"a3 g g^f fe | "Em"eg ^fe "D"d2 A2 |
|: "Am"c3 e "D"dc dA | "Am"c3 e "D"dc d2 | "G"B2 cd "Em"BA AG | "F"A2 "G"(3BAG "Am"A4 :|
V: 2
"^intro"\
| E2 A2 ^F2 A2 | G2 E2 D/E/^F/G/ A2 | G4 E4 | F2 GD E4 ||
"^vocal"\
[| A4 F4 | E4 D4 | E4 B4 | A4 c2G2 |
|^FG A2 =F4 | A4 G2 E2 | E4 D2 E2 | F2 D2 E4 |
| z4 B>c BA | G2 A2 B/c/B/A/ GE | AB cB B2 A2 | B2 A2 ^F/E/F/G/ A2 |
|: E3 G ^FE FD | E3 G ^FE F2 | G4 E4 | CF DG E/F/E/D/ E2 :|

%%sep 1 1 500

